X: 17792
T: Honourable Mrs. Rous, The
R: jig
M: 6/8
K: Dmajor
f|:A>Bc d2f|a>ba f2d|B>AB e2f|g>ag c>de|
A>Bc d2f|a>ba f2d|c>BA f<af|e3 d2f:|
|:a>ba A>df|f<af d>ef|g>ag B>cd|c<ec A2f/g/|
a>ba A>df|f<af d2e|c>BA f<af|e3 d2f:|
|:A3 d2f|f<af d<fd|B3e2f|e<g ec<ec|
A3 d2f|f<af d<fd|c>BA f<af|e3 d2f:|
a3 f2d|f<af d<fd|g3 B2d|c<ed c<Ac|
a3 f2d|f<af d<fd|c>BA f<af|e3 d2f/g/|
a3 f2d|f<af d<fd|g3 B2d|c<ed c<Ac|
A>Bc d2f|a>ba f2d|c>BA f<af|e3 d3|

